X: 30042
T: SWISS BOY
C:
%R: march, song
B: Elias Howe "The Musician's Companion" Part 3 1844 p.4 #2
S: http://imslp.org/wiki/The_Musician's_Companion_(Howe,_Elias)
S: https://archive.org/stream/firstthirdpartof03howe/#page/66/mode/1up
Z: 2016 John Chambers <jc:trillian.mit.edu>
M: 4/4
L: 1/8
K: D
% - - - - - - - - - - - - - - - - - - - - - - - - -
F> G |\
A2 F> G A2 F> G | A2 f>e d2 A> A |\
A2 g> f e2 f> e | d6 :|\
|: A2 |\
G2 e>d c2 A2 | A2 f>e d2 A2 |\
G2 e>d c2 A2 | A2 f>e "^D.C."d2 :|
% - - - - - - - - - - - - - - - - - - - - - - - - -
